X: 1032
T: Carrack's Rant.   a Strathspey.
O: The Old Scotch Song of Mary Scott is taken from this Tune.
%R: strathspey
B: Niel Gow & Sons "Complete Repository" v.1 p.3 #2
Z: 2021 John Chambers <jc:trillian.mit.edu>
M: C
L: 1/8
Q: "SLOWISH"
K: D	% Ending on G
% - - - - - - - - - -
% Voice 1 formatted for proofreading.
V: 1 staves=2
d |!p!\
D3F AA/A/ TA>F | A>B d>A F/F/F F>D | E2-TE>F B/B/B TB>A | d>fTe>d B/B/B (3(Bcd) || !f!D3F A/A/A (TA>F) |
A>B{AB}d>A F/F/F F>D | TG>BG>B F>AF>A | TE>DEF B/B/B B |[| e | d2-Td>f d/d/d d>A | TB>A{c}d>A F/F/F F>D | ~e3f e/e/e e>f |
{ef}g>fed B/B/B B>e || d2-Td>f d/d/d d>A | TB>A{c}d>A F/F/F TF>D | !f!G>BG>B F>AF>A | TE>DEF B/B/B B |]
% - - - - - - - - - -
% Voice 2 preserves the book's staff layout.
V: 2 clef=bass middle=d
% - - - - - - - - - -
z |!p!\
d2d2 d2d2 | d2d2 d2d2 | e2e2 e2e2 | f2a2 g2G2 || !f![d2D2][d2D2] [d2D2][d2D2] |
[d2D2][d2D2] [d2D2][d2D2] | b2g2 f2d2 | e2f2 g2G |[| z | d2d'2 d'2d'2 | d'2a2 d2d2 | e2e'2 e'2e'2 |
e2f2 g2G2 || d2d'2 d'2d'2 | d'2a2 d2=c'2 | !f!b2c'2 d'2d2 | e2f2 g2G |]


